report_00007_2020-12-11T15:55:29.892Z/interactive/comparison/sorted/1_vs_2.svg

<svg width="640" height="500" xmlns="http://www.w3.org/2000/svg" xmlns:xlink="http://www.w3.org/1999/xlink"><path fill="#fff" d="M0 0h640v500H0z"/><defs><path id="d" stroke-width=".222" stroke="currentColor" d="M-1-1h2v2h-2z"/><path id="b" stroke-width=".222" stroke="currentColor" d="M0-1.33l-1.33 2h2.66z"/><path id="f" stroke-width=".222" stroke="currentColor" d="M0 1.33L1.265.411.782-1.067l-1.564-.009-.483 1.487z"/><use xlink:href="#b" id="c" stroke="currentColor" transform="rotate(180)"/><use xlink:href="#d" id="e" stroke="currentColor" transform="rotate(45)"/><circle id="a" stroke-width=".222" stroke="currentColor" cx="0" cy="0" r="1"/></defs><g fill="none" color="#000" stroke="currentColor"><path stroke="#000" d="M70.5 406.1h9m535.5 0h-9"/><text transform="translate(62.2 410)" stroke="none" fill="#000" font-family="Arial" font-size="12" text-anchor="end"><tspan>11000</tspan></text></g><g fill="none" color="#000" stroke="currentColor"><path stroke="#000" d="M70.5 361.6h9m535.5 0h-9"/><text transform="translate(62.2 365.5)" stroke="none" fill="#000" font-family="Arial" font-size="12" text-anchor="end"><tspan>11200</tspan></text></g><g fill="none" color="#000" stroke="currentColor"><path stroke="#000" d="M70.5 317h9m535.5 0h-9"/><text transform="translate(62.2 320.9)" stroke="none" fill="#000" font-family="Arial" font-size="12" text-anchor="end"><tspan>11400</tspan></text></g><g fill="none" color="#000" stroke="currentColor"><path stroke="#000" d="M70.5 272.5h9m535.5 0h-9"/><text transform="translate(62.2 276.4)" stroke="none" fill="#000" font-family="Arial" font-size="12" text-anchor="end"><tspan>11600</tspan></text></g><g fill="none" color="#000" stroke="currentColor"><path stroke="#000" d="M70.5 227.9h9m535.5 0h-9"/><text transform="translate(62.2 231.8)" stroke="none" fill="#000" font-family="Arial" font-size="12" text-anchor="end"><tspan>11800</tspan></text></g><g fill="none" color="#000" stroke="currentColor"><path stroke="#000" d="M70.5 183.3h9m535.5 0h-9"/><text transform="translate(62.2 187.2)" stroke="none" fill="#000" font-family="Arial" font-size="12" text-anchor="end"><tspan>12000</tspan></text></g><g fill="none" color="#000" stroke="currentColor"><path stroke="#000" d="M70.5 138.8h9m535.5 0h-9"/><text transform="translate(62.2 142.7)" stroke="none" fill="#000" font-family="Arial" font-size="12" text-anchor="end"><tspan>12200</tspan></text></g><g fill="none" color="#000" stroke="currentColor"><path stroke="#000" d="M70.5 94.2h9m535.5 0h-9"/><text transform="translate(62.2 98.1)" stroke="none" fill="#000" font-family="Arial" font-size="12" text-anchor="end"><tspan>12400</tspan></text></g><g fill="none" color="#000" stroke="currentColor"><path stroke="#000" d="M70.5 49.7h9m535.5 0h-9"/><text transform="translate(62.2 53.6)" stroke="none" fill="#000" font-family="Arial" font-size="12" text-anchor="end"><tspan>12600</tspan></text></g><g fill="none" color="#000" stroke="currentColor"><path stroke="#000" d="M70.5 428v-9m0-400.9v9"/><text transform="translate(70.5 449.9)" stroke="none" fill="#000" font-family="Arial" font-size="12" text-anchor="middle"><tspan>0</tspan></text></g><g fill="none" color="#000" stroke="currentColor"><path stroke="#000" d="M125.5 428v-9m0-400.9v9"/><text transform="translate(125.5 449.9)" stroke="none" fill="#000" font-family="Arial" font-size="12" text-anchor="middle"><tspan>10</tspan></text></g><g fill="none" color="#000" stroke="currentColor"><path stroke="#000" d="M180.5 428v-9m0-400.9v9"/><text transform="translate(180.5 449.9)" stroke="none" fill="#000" font-family="Arial" font-size="12" text-anchor="middle"><tspan>20</tspan></text></g><g fill="none" color="#000" stroke="currentColor"><path stroke="#000" d="M235.5 428v-9m0-400.9v9"/><text transform="translate(235.5 449.9)" stroke="none" fill="#000" font-family="Arial" font-size="12" text-anchor="middle"><tspan>30</tspan></text></g><g fill="none" color="#000" stroke="currentColor"><path stroke="#000" d="M290.5 428v-9m0-400.9v9"/><text transform="translate(290.5 449.9)" stroke="none" fill="#000" font-family="Arial" font-size="12" text-anchor="middle"><tspan>40</tspan></text></g><g fill="none" color="#000" stroke="currentColor"><path stroke="#000" d="M345.5 428v-9m0-400.9v9"/><text transform="translate(345.5 449.9)" stroke="none" fill="#000" font-family="Arial" font-size="12" text-anchor="middle"><tspan>50</tspan></text></g><g fill="none" color="#000" stroke="currentColor"><path stroke="#000" d="M400.5 428v-9m0-400.9v9"/><text transform="translate(400.5 449.9)" stroke="none" fill="#000" font-family="Arial" font-size="12" text-anchor="middle"><tspan>60</tspan></text></g><g fill="none" color="#000" stroke="currentColor"><path stroke="#000" d="M455.5 428v-9m0-400.9v9"/><text transform="translate(455.5 449.9)" stroke="none" fill="#000" font-family="Arial" font-size="12" text-anchor="middle"><tspan>70</tspan></text></g><g fill="none" color="#000" stroke="currentColor"><path stroke="#000" d="M510.5 428v-9m0-400.9v9"/><text transform="translate(510.5 449.9)" stroke="none" fill="#000" font-family="Arial" font-size="12" text-anchor="middle"><tspan>80</tspan></text></g><g fill="none" color="#000" stroke="currentColor"><path stroke="#000" d="M565.5 428v-9m0-400.9v9"/><text transform="translate(565.5 449.9)" stroke="none" fill="#000" font-family="Arial" font-size="12" text-anchor="middle"><tspan>90</tspan></text></g><path stroke="#000" d="M70.5 18.1V428H615V18.1H70.5z" fill="none" color="#000"/><text transform="translate(283.9 467.9)" stroke="none" fill="#000" font-family="Arial" font-size="12" text-anchor="end" color="#000"><tspan>pages</tspan></text><path stroke="#9400D3" d="M292.2 464h42.2M70.5 318.9l5.5-26.7 5.5-.2 5.5-.6 5.5-6.4 5.5-5.3 5.5-.6 5.5-.4 5.5-.3 5.5-.5 5.5-.9 5.5-.1 5.5-.2 5.5-.2 5.5-.2 5.5-.4 5.5-.3 5.5-.6 5.5-1.2 5.5-.2 5.5-3.2 5.5-7 5.5-.5 5.5-.4 5.5-.1 5.5-.3 5.5-.4 5.5-.1 5.5-.3 5.5-.1 5.5-.2 5.5-.1h5.5l5.5-.2 5.5-.2 5.5-.4 5.5-.3 5.5-.3 5.5-.1 5.5-.1 5.5-.2h5.5l5.5-.1 5.5-.2 5.5-.2 5.5-.4 5.5-.2 5.5-.1 5.5-.2 5.5-.1h5.5l5.5-.3 5.5-.3 5.5-.1 5.5-.1h5.5l5.5-.2 5.5-.5 5.5-.1 5.5-.2 5.5-.2 5.5-.2 5.5-1 5.5-3.5 5.5-.1 5.5-.9 5.5-1.9 5.5-1.1 5.5-1 5.5-.1 5.5-1 5.5-.7 5.5-.6 5.5-.2 5.5-.2 5.5-.3 5.5-.4 5.5-.6 5.5-.9 5.5-.3 5.5-.1h11l5.5-.3 5.5-.2 5.5-1.5h5.5l5.5-3.1 5.5-.6 5.5-1 5.5-.9 5.5-2.9 5.5-2.3 5.5-.8 5.5-5.7 5.5-4.8 5.5-2.2 5.5-1.2 5.5-50.1L615 26" fill="none" color="#000"/><text transform="translate(283.9 485.9)" stroke="none" fill="#000" font-family="Arial" font-size="12" text-anchor="end" color="#000"><tspan>pages+cached</tspan></text><path stroke="#009E73" d="M292.2 482h42.2M70.5 420.1l5.5-.8 5.5-.1h11l5.5-.1 5.5-.1 5.5-.2 5.5-.2 5.5-.4h22l5.5-.1h11l5.5-.2h5.5l5.5-.1h11l5.5-.1 5.5-.1 5.5-.1 5.5-.1 5.5-.1h11l5.5-.1h11l5.5-.1h5.5l5.5-.1 5.5-.3h11l5.5-.1 5.5-.1 5.5-.3 5.5-.1h5.5l5.5-.2 5.5-.2h5.5l5.5-.1 5.5-.4 5.5-.1 5.5-.5h11l5.5-.2 5.5-.2 5.5-.1 5.5-.2h5.5l5.5-.5h16.5l5.5-.1h5.5l5.5-.2 5.5-.1 5.5-.1 5.5-.1 5.5-.3 5.5-.1h11l5.5-.2 5.5-.2 5.5-.1h5.5l5.5-.2 5.5-.1H505l5.5-.2h5.5l5.5-.1 5.5-.1 5.5-.1 5.5-.2h5.5l5.5-.1h5.5l5.5-.4h5.5l5.5-.1 5.5-.6 5.5-1.3 5.5-2.3 5.5-.4 5.5-.1 5.5-3.4 5.5-1.9 5.5-105.4" fill="none" color="#000"/><text transform="translate(483.8 467.9)" stroke="none" fill="#000" font-family="Arial" font-size="12" text-anchor="end" color="#000"><tspan>score p10=3785</tspan></text><path stroke="#56B4E9" d="M492.1 464h42.2" fill="none" color="#000"/><g><text transform="translate(483.8 485.9)" stroke="none" fill="#000" font-family="Arial" font-size="12" text-anchor="end" color="#000"><tspan>score median=7300</tspan></text><path stroke="#E69F00" d="M492.1 482h42.2" fill="none" color="#000"/></g><g fill="none" color="#000" stroke="currentColor"><path stroke="#000" d="M70.5 18.1V428H615V18.1H70.5z"/></g></svg>

<?xml version="1.0" encoding="utf-8"  standalone="no"?>
<svg 
 width="640" height="500"
 viewBox="0 0 640 500"
 xmlns="http://www.w3.org/2000/svg"
 xmlns:xlink="http://www.w3.org/1999/xlink"
>

<title>Gnuplot</title>
<desc>Produced by GNUPLOT 5.4 patchlevel 0 </desc>

<g id="gnuplot_canvas">

<rect x="0" y="0" width="640" height="500" fill="#ffffff"/>
<defs>

	<circle id='gpDot' r='0.5' stroke-width='0.5' stroke='currentColor'/>
	<path id='gpPt0' stroke-width='0.222' stroke='currentColor' d='M-1,0 h2 M0,-1 v2'/>
	<path id='gpPt1' stroke-width='0.222' stroke='currentColor' d='M-1,-1 L1,1 M1,-1 L-1,1'/>
	<path id='gpPt2' stroke-width='0.222' stroke='currentColor' d='M-1,0 L1,0 M0,-1 L0,1 M-1,-1 L1,1 M-1,1 L1,-1'/>
	<rect id='gpPt3' stroke-width='0.222' stroke='currentColor' x='-1' y='-1' width='2' height='2'/>
	<rect id='gpPt4' stroke-width='0.222' stroke='currentColor' fill='currentColor' x='-1' y='-1' width='2' height='2'/>
	<circle id='gpPt5' stroke-width='0.222' stroke='currentColor' cx='0' cy='0' r='1'/>
	<use xlink:href='#gpPt5' id='gpPt6' fill='currentColor' stroke='none'/>
	<path id='gpPt7' stroke-width='0.222' stroke='currentColor' d='M0,-1.33 L-1.33,0.67 L1.33,0.67 z'/>
	<use xlink:href='#gpPt7' id='gpPt8' fill='currentColor' stroke='none'/>
	<use xlink:href='#gpPt7' id='gpPt9' stroke='currentColor' transform='rotate(180)'/>
	<use xlink:href='#gpPt9' id='gpPt10' fill='currentColor' stroke='none'/>
	<use xlink:href='#gpPt3' id='gpPt11' stroke='currentColor' transform='rotate(45)'/>
	<use xlink:href='#gpPt11' id='gpPt12' fill='currentColor' stroke='none'/>
	<path id='gpPt13' stroke-width='0.222' stroke='currentColor' d='M0,1.330 L1.265,0.411 L0.782,-1.067 L-0.782,-1.076 L-1.265,0.411 z'/>
	<use xlink:href='#gpPt13' id='gpPt14' fill='currentColor' stroke='none'/>
	<filter id='textbox' filterUnits='objectBoundingBox' x='0' y='0' height='1' width='1'>
	  <feFlood flood-color='#FFFFFF' flood-opacity='1' result='bgnd'/>
	  <feComposite in='SourceGraphic' in2='bgnd' operator='atop'/>
	</filter>
	<filter id='greybox' filterUnits='objectBoundingBox' x='0' y='0' height='1' width='1'>
	  <feFlood flood-color='lightgrey' flood-opacity='1' result='grey'/>
	  <feComposite in='SourceGraphic' in2='grey' operator='atop'/>
	</filter>
</defs>
<g fill="none" color="#FFFFFF" stroke="black" stroke-width="1.00" stroke-linecap="butt" stroke-linejoin="miter">
</g>
<g fill="none" color="black" stroke="currentColor" stroke-width="1.00" stroke-linecap="butt" stroke-linejoin="miter">
	<path stroke='black'  d='M70.5,406.1 L79.5,406.1 M615.0,406.1 L606.0,406.1  '/>	<g transform="translate(62.2,410.0)" stroke="none" fill="black" font-family="Arial" font-size="12.00"  text-anchor="end">
		<text><tspan font-family="Arial" > 11000</tspan></text>
	</g>
</g>
<g fill="none" color="black" stroke="currentColor" stroke-width="1.00" stroke-linecap="butt" stroke-linejoin="miter">
	<path stroke='black'  d='M70.5,361.6 L79.5,361.6 M615.0,361.6 L606.0,361.6  '/>	<g transform="translate(62.2,365.5)" stroke="none" fill="black" font-family="Arial" font-size="12.00"  text-anchor="end">
		<text><tspan font-family="Arial" > 11200</tspan></text>
	</g>
</g>
<g fill="none" color="black" stroke="currentColor" stroke-width="1.00" stroke-linecap="butt" stroke-linejoin="miter">
	<path stroke='black'  d='M70.5,317.0 L79.5,317.0 M615.0,317.0 L606.0,317.0  '/>	<g transform="translate(62.2,320.9)" stroke="none" fill="black" font-family="Arial" font-size="12.00"  text-anchor="end">
		<text><tspan font-family="Arial" > 11400</tspan></text>
	</g>
</g>
<g fill="none" color="black" stroke="currentColor" stroke-width="1.00" stroke-linecap="butt" stroke-linejoin="miter">
	<path stroke='black'  d='M70.5,272.5 L79.5,272.5 M615.0,272.5 L606.0,272.5  '/>	<g transform="translate(62.2,276.4)" stroke="none" fill="black" font-family="Arial" font-size="12.00"  text-anchor="end">
		<text><tspan font-family="Arial" > 11600</tspan></text>
	</g>
</g>
<g fill="none" color="black" stroke="currentColor" stroke-width="1.00" stroke-linecap="butt" stroke-linejoin="miter">
	<path stroke='black'  d='M70.5,227.9 L79.5,227.9 M615.0,227.9 L606.0,227.9  '/>	<g transform="translate(62.2,231.8)" stroke="none" fill="black" font-family="Arial" font-size="12.00"  text-anchor="end">
		<text><tspan font-family="Arial" > 11800</tspan></text>
	</g>
</g>
<g fill="none" color="black" stroke="currentColor" stroke-width="1.00" stroke-linecap="butt" stroke-linejoin="miter">
	<path stroke='black'  d='M70.5,183.3 L79.5,183.3 M615.0,183.3 L606.0,183.3  '/>	<g transform="translate(62.2,187.2)" stroke="none" fill="black" font-family="Arial" font-size="12.00"  text-anchor="end">
		<text><tspan font-family="Arial" > 12000</tspan></text>
	</g>
</g>
<g fill="none" color="black" stroke="currentColor" stroke-width="1.00" stroke-linecap="butt" stroke-linejoin="miter">
	<path stroke='black'  d='M70.5,138.8 L79.5,138.8 M615.0,138.8 L606.0,138.8  '/>	<g transform="translate(62.2,142.7)" stroke="none" fill="black" font-family="Arial" font-size="12.00"  text-anchor="end">
		<text><tspan font-family="Arial" > 12200</tspan></text>
	</g>
</g>
<g fill="none" color="black" stroke="currentColor" stroke-width="1.00" stroke-linecap="butt" stroke-linejoin="miter">
	<path stroke='black'  d='M70.5,94.2 L79.5,94.2 M615.0,94.2 L606.0,94.2  '/>	<g transform="translate(62.2,98.1)" stroke="none" fill="black" font-family="Arial" font-size="12.00"  text-anchor="end">
		<text><tspan font-family="Arial" > 12400</tspan></text>
	</g>
</g>
<g fill="none" color="black" stroke="currentColor" stroke-width="1.00" stroke-linecap="butt" stroke-linejoin="miter">
	<path stroke='black'  d='M70.5,49.7 L79.5,49.7 M615.0,49.7 L606.0,49.7  '/>	<g transform="translate(62.2,53.6)" stroke="none" fill="black" font-family="Arial" font-size="12.00"  text-anchor="end">
		<text><tspan font-family="Arial" > 12600</tspan></text>
	</g>
</g>
<g fill="none" color="black" stroke="currentColor" stroke-width="1.00" stroke-linecap="butt" stroke-linejoin="miter">
	<path stroke='black'  d='M70.5,428.0 L70.5,419.0 M70.5,18.1 L70.5,27.1  '/>	<g transform="translate(70.5,449.9)" stroke="none" fill="black" font-family="Arial" font-size="12.00"  text-anchor="middle">
		<text><tspan font-family="Arial" > 0</tspan></text>
	</g>
</g>
<g fill="none" color="black" stroke="currentColor" stroke-width="1.00" stroke-linecap="butt" stroke-linejoin="miter">
	<path stroke='black'  d='M125.5,428.0 L125.5,419.0 M125.5,18.1 L125.5,27.1  '/>	<g transform="translate(125.5,449.9)" stroke="none" fill="black" font-family="Arial" font-size="12.00"  text-anchor="middle">
		<text><tspan font-family="Arial" > 10</tspan></text>
	</g>
</g>
<g fill="none" color="black" stroke="currentColor" stroke-width="1.00" stroke-linecap="butt" stroke-linejoin="miter">
	<path stroke='black'  d='M180.5,428.0 L180.5,419.0 M180.5,18.1 L180.5,27.1  '/>	<g transform="translate(180.5,449.9)" stroke="none" fill="black" font-family="Arial" font-size="12.00"  text-anchor="middle">
		<text><tspan font-family="Arial" > 20</tspan></text>
	</g>
</g>
<g fill="none" color="black" stroke="currentColor" stroke-width="1.00" stroke-linecap="butt" stroke-linejoin="miter">
	<path stroke='black'  d='M235.5,428.0 L235.5,419.0 M235.5,18.1 L235.5,27.1  '/>	<g transform="translate(235.5,449.9)" stroke="none" fill="black" font-family="Arial" font-size="12.00"  text-anchor="middle">
		<text><tspan font-family="Arial" > 30</tspan></text>
	</g>
</g>
<g fill="none" color="black" stroke="currentColor" stroke-width="1.00" stroke-linecap="butt" stroke-linejoin="miter">
	<path stroke='black'  d='M290.5,428.0 L290.5,419.0 M290.5,18.1 L290.5,27.1  '/>	<g transform="translate(290.5,449.9)" stroke="none" fill="black" font-family="Arial" font-size="12.00"  text-anchor="middle">
		<text><tspan font-family="Arial" > 40</tspan></text>
	</g>
</g>
<g fill="none" color="black" stroke="currentColor" stroke-width="1.00" stroke-linecap="butt" stroke-linejoin="miter">
	<path stroke='black'  d='M345.5,428.0 L345.5,419.0 M345.5,18.1 L345.5,27.1  '/>	<g transform="translate(345.5,449.9)" stroke="none" fill="black" font-family="Arial" font-size="12.00"  text-anchor="middle">
		<text><tspan font-family="Arial" > 50</tspan></text>
	</g>
</g>
<g fill="none" color="black" stroke="currentColor" stroke-width="1.00" stroke-linecap="butt" stroke-linejoin="miter">
	<path stroke='black'  d='M400.5,428.0 L400.5,419.0 M400.5,18.1 L400.5,27.1  '/>	<g transform="translate(400.5,449.9)" stroke="none" fill="black" font-family="Arial" font-size="12.00"  text-anchor="middle">
		<text><tspan font-family="Arial" > 60</tspan></text>
	</g>
</g>
<g fill="none" color="black" stroke="currentColor" stroke-width="1.00" stroke-linecap="butt" stroke-linejoin="miter">
	<path stroke='black'  d='M455.5,428.0 L455.5,419.0 M455.5,18.1 L455.5,27.1  '/>	<g transform="translate(455.5,449.9)" stroke="none" fill="black" font-family="Arial" font-size="12.00"  text-anchor="middle">
		<text><tspan font-family="Arial" > 70</tspan></text>
	</g>
</g>
<g fill="none" color="black" stroke="currentColor" stroke-width="1.00" stroke-linecap="butt" stroke-linejoin="miter">
	<path stroke='black'  d='M510.5,428.0 L510.5,419.0 M510.5,18.1 L510.5,27.1  '/>	<g transform="translate(510.5,449.9)" stroke="none" fill="black" font-family="Arial" font-size="12.00"  text-anchor="middle">
		<text><tspan font-family="Arial" > 80</tspan></text>
	</g>
</g>
<g fill="none" color="black" stroke="currentColor" stroke-width="1.00" stroke-linecap="butt" stroke-linejoin="miter">
	<path stroke='black'  d='M565.5,428.0 L565.5,419.0 M565.5,18.1 L565.5,27.1  '/>	<g transform="translate(565.5,449.9)" stroke="none" fill="black" font-family="Arial" font-size="12.00"  text-anchor="middle">
		<text><tspan font-family="Arial" > 90</tspan></text>
	</g>
</g>
<g fill="none" color="black" stroke="currentColor" stroke-width="1.00" stroke-linecap="butt" stroke-linejoin="miter">
</g>
<g fill="none" color="black" stroke="currentColor" stroke-width="1.00" stroke-linecap="butt" stroke-linejoin="miter">
	<path stroke='black'  d='M70.5,18.1 L70.5,428.0 L615.0,428.0 L615.0,18.1 L70.5,18.1 Z  '/></g>
<g fill="none" color="black" stroke="currentColor" stroke-width="1.00" stroke-linecap="butt" stroke-linejoin="miter">
</g>
	<g id="gnuplot_plot_1" ><title>pages</title>
<g fill="none" color="black" stroke="currentColor" stroke-width="1.00" stroke-linecap="butt" stroke-linejoin="miter">
	<g transform="translate(283.9,467.9)" stroke="none" fill="black" font-family="Arial" font-size="12.00"  text-anchor="end">
		<text><tspan font-family="Arial" >pages</tspan></text>
	</g>
</g>
<g fill="none" color="black" stroke="currentColor" stroke-width="1.00" stroke-linecap="butt" stroke-linejoin="miter">
	<path stroke='rgb(148,   0, 211)'  d='M292.2,464.0 L334.4,464.0 M70.5,318.9 L76.0,292.2 L81.5,292.0 L87.0,291.4 L92.5,285.0 L98.0,279.7
		L103.5,279.1 L109.0,278.7 L114.5,278.4 L120.0,277.9 L125.5,277.0 L131.0,276.9 L136.5,276.7 L142.0,276.5
		L147.5,276.3 L153.0,275.9 L158.5,275.6 L164.0,275.0 L169.5,273.8 L175.0,273.6 L180.5,270.4 L186.0,263.4
		L191.5,262.9 L197.0,262.5 L202.5,262.4 L208.0,262.1 L213.5,261.7 L219.0,261.6 L224.5,261.3 L230.0,261.2
		L235.5,261.0 L241.0,260.9 L246.5,260.9 L252.0,260.7 L257.5,260.5 L263.0,260.1 L268.5,259.8 L274.0,259.5
		L279.5,259.4 L285.0,259.3 L290.5,259.1 L296.0,259.1 L301.5,259.0 L307.0,258.8 L312.5,258.6 L318.0,258.2
		L323.5,258.0 L329.0,257.9 L334.5,257.7 L340.0,257.6 L345.5,257.6 L351.0,257.3 L356.5,257.0 L362.0,256.9
		L367.5,256.8 L373.0,256.8 L378.5,256.6 L384.0,256.1 L389.5,256.0 L395.0,255.8 L400.5,255.6 L406.0,255.4
		L411.5,254.4 L417.0,250.9 L422.5,250.8 L428.0,249.9 L433.5,248.0 L439.0,246.9 L444.5,245.9 L450.0,245.8
		L455.5,244.8 L461.0,244.1 L466.5,243.5 L472.0,243.3 L477.5,243.1 L483.0,242.8 L488.5,242.4 L494.0,241.8
		L499.5,240.9 L505.0,240.6 L510.5,240.5 L516.0,240.5 L521.5,240.5 L527.0,240.2 L532.5,240.0 L538.0,238.5
		L543.5,238.5 L549.0,235.4 L554.5,234.8 L560.0,233.8 L565.5,232.9 L571.0,230.0 L576.5,227.7 L582.0,226.9
		L587.5,221.2 L593.0,216.4 L598.5,214.2 L604.0,213.0 L609.5,162.9 L615.0,26.0  '/></g>
	</g>
	<g id="gnuplot_plot_2" ><title>pages+cached</title>
<g fill="none" color="black" stroke="currentColor" stroke-width="1.00" stroke-linecap="butt" stroke-linejoin="miter">
	<g transform="translate(283.9,485.9)" stroke="none" fill="black" font-family="Arial" font-size="12.00"  text-anchor="end">
		<text><tspan font-family="Arial" >pages+cached</tspan></text>
	</g>
</g>
<g fill="none" color="black" stroke="currentColor" stroke-width="1.00" stroke-linecap="butt" stroke-linejoin="miter">
	<path stroke='rgb(  0, 158, 115)'  d='M292.2,482.0 L334.4,482.0 M70.5,420.1 L76.0,419.3 L81.5,419.2 L87.0,419.2 L92.5,419.2 L98.0,419.1
		L103.5,419.0 L109.0,418.8 L114.5,418.6 L120.0,418.2 L125.5,418.2 L131.0,418.2 L136.5,418.2 L142.0,418.2
		L147.5,418.1 L153.0,418.1 L158.5,418.1 L164.0,417.9 L169.5,417.9 L175.0,417.8 L180.5,417.8 L186.0,417.8
		L191.5,417.7 L197.0,417.6 L202.5,417.5 L208.0,417.4 L213.5,417.3 L219.0,417.3 L224.5,417.3 L230.0,417.2
		L235.5,417.2 L241.0,417.2 L246.5,417.1 L252.0,417.1 L257.5,417.0 L263.0,416.7 L268.5,416.7 L274.0,416.7
		L279.5,416.6 L285.0,416.5 L290.5,416.2 L296.0,416.1 L301.5,416.1 L307.0,415.9 L312.5,415.7 L318.0,415.7
		L323.5,415.6 L329.0,415.2 L334.5,415.1 L340.0,414.6 L345.5,414.6 L351.0,414.6 L356.5,414.4 L362.0,414.2
		L367.5,414.1 L373.0,413.9 L378.5,413.9 L384.0,413.4 L389.5,413.4 L395.0,413.4 L400.5,413.4 L406.0,413.3
		L411.5,413.3 L417.0,413.1 L422.5,413.0 L428.0,412.9 L433.5,412.8 L439.0,412.5 L444.5,412.4 L450.0,412.4
		L455.5,412.4 L461.0,412.2 L466.5,412.0 L472.0,411.9 L477.5,411.9 L483.0,411.7 L488.5,411.6 L494.0,411.6
		L499.5,411.6 L505.0,411.6 L510.5,411.4 L516.0,411.4 L521.5,411.3 L527.0,411.2 L532.5,411.1 L538.0,410.9
		L543.5,410.9 L549.0,410.8 L554.5,410.8 L560.0,410.4 L565.5,410.4 L571.0,410.3 L576.5,409.7 L582.0,408.4
		L587.5,406.1 L593.0,405.7 L598.5,405.6 L604.0,402.2 L609.5,400.3 L615.0,294.9  '/></g>
	</g>
	<g id="gnuplot_plot_3" ><title>score p10=3785</title>
<g fill="none" color="black" stroke="currentColor" stroke-width="1.00" stroke-linecap="butt" stroke-linejoin="miter">
	<g transform="translate(483.8,467.9)" stroke="none" fill="black" font-family="Arial" font-size="12.00"  text-anchor="end">
		<text><tspan font-family="Arial" >score p10=3785</tspan></text>
	</g>
</g>
<g fill="none" color="black" stroke="currentColor" stroke-width="1.00" stroke-linecap="butt" stroke-linejoin="miter">
	<path stroke='rgb( 86, 180, 233)'  d='M492.1,464.0 L534.3,464.0  '/></g>
	</g>
	<g id="gnuplot_plot_4" ><title>score median=7300</title>
<g fill="none" color="black" stroke="currentColor" stroke-width="1.00" stroke-linecap="butt" stroke-linejoin="miter">
	<g transform="translate(483.8,485.9)" stroke="none" fill="black" font-family="Arial" font-size="12.00"  text-anchor="end">
		<text><tspan font-family="Arial" >score median=7300</tspan></text>
	</g>
</g>
<g fill="none" color="black" stroke="currentColor" stroke-width="1.00" stroke-linecap="butt" stroke-linejoin="miter">
	<path stroke='rgb(230, 159,   0)'  d='M492.1,482.0 L534.3,482.0  '/></g>
	</g>
<g fill="none" color="#FFFFFF" stroke="rgb(230, 159,   0)" stroke-width="2.00" stroke-linecap="butt" stroke-linejoin="miter">
</g>
<g fill="none" color="black" stroke="currentColor" stroke-width="2.00" stroke-linecap="butt" stroke-linejoin="miter">
</g>
<g fill="none" color="black" stroke="black" stroke-width="1.00" stroke-linecap="butt" stroke-linejoin="miter">
</g>
<g fill="none" color="black" stroke="currentColor" stroke-width="1.00" stroke-linecap="butt" stroke-linejoin="miter">
	<path stroke='black'  d='M70.5,18.1 L70.5,428.0 L615.0,428.0 L615.0,18.1 L70.5,18.1 Z  '/></g>
<g fill="none" color="black" stroke="currentColor" stroke-width="1.00" stroke-linecap="butt" stroke-linejoin="miter">
</g>
</g>
</svg>
